X: 6
T: For The Sake Of Old Decency
Z: Ian Varley
S: https://thesession.org/tunes/2777#setting27208
R: reel
M: 4/4
L: 1/8
K: Gmaj
d2BG AGEG|DGBG A2Bc|d2BG AGEG|dBAG EG~G2:||
G3B d3b|a3g egg2|1~G3B d2ge|dega bgg2:|2 bgag egdB|~d2bg ageg||
